X:17
T:Generally Colliding
R:slide
C:Jim McGraw
O:Co. Fermanagh, Ireland
S:http://www.cranfordpub.com/recordings/mcgraw.htm
D:Melodious Accord, Jim McGraw
Z:psc
H:Having enjoyed playing for Sets Ceilis all over the North with fiddle player, Charlie Woods, I composed these slides with rather zany titles. One particular Set Dance, The Ballyvourney Jig Set consists of five individual figures, and when danced non-stop consists of 552 bars of music. For any beginner, brave enough to undertake such a challenge it generally ended in disaster, like a stray sheep throwing the rest of the flock into disarray.
L:1/8
Q:399
M:12/8
K:D
ABc|d2 A F2 D G2 B BAG|F2 A d2 f e3 e2 g|
f2 d A2 F G2 B B2 G|[1ABA GFE D3:|[2ABA GFE D3 D2 z||
||f2 d A2 F GBd g2 e|f2 d Adf e3 e2 g|
f2 d A2 F GBd g2 e|faf gec d3 a2 g|
f2 d A2 F GBd g2 e|f2 d Adf e3 e2 g|
f2 d A2 F G2 B B2 G|ABA GFE D3|]
